X: 1308
T: Kürdîlihicazkâr Sirto
C: Kemânî Sebuh
O: Turkey
F: http://compmusic.upf.edu/node/140
N: kurdilihicazkar--sirto--nimsofyan----kemani_sebuh
N: makam= kurdilihicazkar
N: form= sirto
N: usul= nimsofyan = 2/4
M: 2/4
L: 1/16
K: C _B _e _A 
Q: 1/4=108
%%MIDI tuningsystem comma53
(3_1/4B2c2d2 e3f  | d3c _1/4B3A  | G4 (3c2_1/4B2c2  | \
w:  I.  |   |   | 
d4 g4  | (3_1/4B2c2d2 e3f  | d3c _1/4B3A  | 
w:   |   |   | 
(3_1/4B2c2d2 (3c2B2A2  | G4 z4  | (3_1/4B2c2d2 e3f  | \
w:   |   |  I.  | 
d3c _1/4B3A  | G4 (3c2_1/4B2c2  | 
w:   |   | 
d4 g4  | (3_1/4B2c2d2 e3f  | d3c _1/4B3A  | \
w:   |   |   | 
(3_1/4B2c2d2 (3c2B2A2  | G4 z4  | (3c2d2d2 (3d2d2d2  | 
w:   |   |   | 
(3d2d2d2 (3d2d2c2  | (3e2d2c2 (3c2B2d2  | \
w:   |   | 
c4 z4  | (3B2c2d2 (3e2f2g2  | (3a2g2f2 (3e2d2c2  | 
w:   |   |   | 
B3A A3G  | G4 z4  | (3c2d2d2 (3d2d2d2  | \
w:   |   |   | 
(3d2d2d2 (3d2d2c2  | (3e2d2c2 (3c2B2d2  | 
w:   |   | 
c4 z4  | (3B2c2d2 (3e2f2g2  | (3a2g2f2 (3e2d2c2  | \
w:   |   |   | 
B3A A3G  | G4 z4  | (3_1/4A2B2c2 (3A2B2F2  | 
w:   |   |  II.  | 
(3_1/4A2B2c2 (3A2B2F2  | (3_1/4A2B2c2 (3_7/8d2c2B2  | \
w:   |   | 
B3_1/4A B4  | (3_1/4e2f2g2 (3_7/8a2g2f2  | 
w:   |   | 
_1/4e3d c3B  | B3_1/4A A3G  | G4 z4  | (3_1/4A2B2c2 (3A2B2F2  | \
w:   |   |   |  II.  | 
(3_1/4A2B2c2 (3A2B2F2  | 
w:   | 
(3_1/4A2B2c2 (3_7/8d2c2B2  | B3_1/4A B4  | \
w:   |   | 
(3_1/4e2f2g2 (3_7/8a2g2f2  | _1/4e3d c3B  | \
w:   |   | 
B3_1/4A A3G  | 
w:   | 
G4 z4  | (3_7/8a2g2f2 (3e2d2c2  | d3_1/4e f3g  | \
w:   |   |   | 
(3_7/8a2g2f2 _1/4e3f  | g4 c'4  | (3_1/4b2c'2d'2 (3e'2d'2c'2  | 
w:   |   |   | 
b3_7/8a g3f  | f3_1/4e e3d  | d4 g4  | (3_7/8a2g2f2 (3e2d2c2  | \
w:   |   |   |   | 
d3_1/4e f3g  | (3_7/8a2g2f2 _1/4e3f  | 
w:   |   | 
g4 c'4  | (3_1/4b2c'2d'2 (3e'2d'2c'2  | \
w:   |   | 
b3_7/8a g3f  | f3_1/4e e3d  | d4 z4  | (3_7/8a2g2f2 (3e2d2c2  | 
w:   |   |   |   | 
d3_1/4e f3g  | (3_7/8a2g2f2 _1/4e3f  | \
w:   |   | 
g4 c'4  | (3_1/4b2c'2d'2 (3e'2d'2c'2  | \
w:   |   | 
b3_7/8a g3f  | 
w:   | 
f3_1/4e e3d  | d4 g4  | (3_7/8a2g2f2 (3e2d2c2  | \
w:   |   |   | 
d3_1/4e f3g  | (3_7/8a2g2f2 _1/4e3f  | 
w:   |   | 
g4 c'4  | (3_1/4b2c'2d'2 (3e'2d'2c'2  | \
w:   |   | 
b3_7/8a g3f  | f3_1/4e e3d  | d4 z4  | (3f2g2g2 (3g2g2g2  | 
w:   |   |   |   | 
g4 (3d2e2f2  | (3_7/8a2g2f2 (3e2d2c2  | c8  | \
w:   |   |   | 
(3B2c2d2 (3e2f2g2  | (3a2g2f2 (3e2d2c2  | 
w:   |   | 
B3A A3G  | G4 g4  | (3f2g2g2 (3g2g2g2  | \
w:   |   |   | 
g4 (3d2e2f2  | (3_7/8a2g2f2 (3e2d2c2  | 
w:   |   | 
c8  | (3B2c2d2 (3e2f2g2  | (3a2g2f2 (3e2d2c2  | \
w:   |   |   | 
B3A A3G  | G4 z4  | _1/4Bcd2 z2d2  | 
w:   |   |   | 
edef dedc  | _1/4Bcd2 z2d2  | edef dedc  | 
w:   |   |   | 
_1/4Bcd2 z2d2  | edef dedc  | _1/4Bcde dedc  | 
w:   |   |   | 
_1/4BcBA G4  | _1/4Bcd2 z2d2  | edef dedc  | \
w:   |   |   | 
_1/4Bcd2 z2d2  | 
w:   | 
edef dedc  | _1/4Bcd2 z2d2  | edef dedc  | 
w:   |   |   | 
_1/4B4 A4  | G8  | |


